Gawaita/scalable/mimetypes/x-office-document-template.svg

<?xml version="1.0" encoding="UTF-8"?>
<svg height="128px" viewBox="0 0 128 128" width="128px" xmlns="http://www.w3.org/2000/svg" xmlns:xlink="http://www.w3.org/1999/xlink">
    <clipPath id="a">
        <path d="m 20 8 h 89 v 112 h -89 z m 0 0"/>
    </clipPath>
    <clipPath id="b">
        <path d="m 28 8 c -4.433594 0 -8 3.566406 -8 8 v 96 c 0 4.433594 3.566406 8 8 8 h 72 c 4.433594 0 8.046875 -3.589844 8.042969 -8.019531 v -74.0625 l -22 0.007812 c -4.433594 0 -8.042969 -3.492187 -8.042969 -7.925781 v -22 z m 0 0"/>
    </clipPath>
    <clipPath id="c">
        <path d="m 80 100 h 16 v 4 h -16 z m 0 0"/>
    </clipPath>
    <clipPath id="d">
        <path d="m 28 8 c -4.433594 0 -8 3.566406 -8 8 v 96 c 0 4.433594 3.566406 8 8 8 h 72 c 4.433594 0 8.046875 -3.589844 8.042969 -8.019531 v -74.0625 l -22 0.007812 c -4.433594 0 -8.042969 -3.492187 -8.042969 -7.925781 v -22 z m 0 0"/>
    </clipPath>
    <clipPath id="e">
        <path d="m 80 92 h 16 v 4 h -16 z m 0 0"/>
    </clipPath>
    <clipPath id="f">
        <path d="m 28 8 c -4.433594 0 -8 3.566406 -8 8 v 96 c 0 4.433594 3.566406 8 8 8 h 72 c 4.433594 0 8.046875 -3.589844 8.042969 -8.019531 v -74.0625 l -22 0.007812 c -4.433594 0 -8.042969 -3.492187 -8.042969 -7.925781 v -22 z m 0 0"/>
    </clipPath>
    <clipPath id="g">
        <path d="m 80 84 h 16 v 4 h -16 z m 0 0"/>
    </clipPath>
    <clipPath id="h">
        <path d="m 28 8 c -4.433594 0 -8 3.566406 -8 8 v 96 c 0 4.433594 3.566406 8 8 8 h 72 c 4.433594 0 8.046875 -3.589844 8.042969 -8.019531 v -74.0625 l -22 0.007812 c -4.433594 0 -8.042969 -3.492187 -8.042969 -7.925781 v -22 z m 0 0"/>
    </clipPath>
    <clipPath id="i">
        <path d="m 80 76 h 16 v 4 h -16 z m 0 0"/>
    </clipPath>
    <clipPath id="j">
        <path d="m 28 8 c -4.433594 0 -8 3.566406 -8 8 v 96 c 0 4.433594 3.566406 8 8 8 h 72 c 4.433594 0 8.046875 -3.589844 8.042969 -8.019531 v -74.0625 l -22 0.007812 c -4.433594 0 -8.042969 -3.492187 -8.042969 -7.925781 v -22 z m 0 0"/>
    </clipPath>
    <clipPath id="k">
        <path d="m 80 68 h 16 v 4 h -16 z m 0 0"/>
    </clipPath>
    <clipPath id="l">
        <path d="m 28 8 c -4.433594 0 -8 3.566406 -8 8 v 96 c 0 4.433594 3.566406 8 8 8 h 72 c 4.433594 0 8.046875 -3.589844 8.042969 -8.019531 v -74.0625 l -22 0.007812 c -4.433594 0 -8.042969 -3.492187 -8.042969 -7.925781 v -22 z m 0 0"/>
    </clipPath>
    <clipPath id="m">
        <path d="m 80 60 h 16 v 4 h -16 z m 0 0"/>
    </clipPath>
    <clipPath id="n">
        <path d="m 28 8 c -4.433594 0 -8 3.566406 -8 8 v 96 c 0 4.433594 3.566406 8 8 8 h 72 c 4.433594 0 8.046875 -3.589844 8.042969 -8.019531 v -74.0625 l -22 0.007812 c -4.433594 0 -8.042969 -3.492187 -8.042969 -7.925781 v -22 z m 0 0"/>
    </clipPath>
    <clipPath id="o">
        <path d="m 80 52 h 16 v 4 h -16 z m 0 0"/>
    </clipPath>
    <clipPath id="p">
        <path d="m 28 8 c -4.433594 0 -8 3.566406 -8 8 v 96 c 0 4.433594 3.566406 8 8 8 h 72 c 4.433594 0 8.046875 -3.589844 8.042969 -8.019531 v -74.0625 l -22 0.007812 c -4.433594 0 -8.042969 -3.492187 -8.042969 -7.925781 v -22 z m 0 0"/>
    </clipPath>
    <clipPath id="q">
        <path d="m 32 44 h 64 v 4 h -64 z m 0 0"/>
    </clipPath>
    <clipPath id="r">
        <path d="m 28 8 c -4.433594 0 -8 3.566406 -8 8 v 96 c 0 4.433594 3.566406 8 8 8 h 72 c 4.433594 0 8.046875 -3.589844 8.042969 -8.019531 v -74.0625 l -22 0.007812 c -4.433594 0 -8.042969 -3.492187 -8.042969 -7.925781 v -22 z m 0 0"/>
    </clipPath>
    <clipPath id="s">
        <path d="m 32 36 h 40 v 4 h -40 z m 0 0"/>
    </clipPath>
    <clipPath id="t">
        <path d="m 28 8 c -4.433594 0 -8 3.566406 -8 8 v 96 c 0 4.433594 3.566406 8 8 8 h 72 c 4.433594 0 8.046875 -3.589844 8.042969 -8.019531 v -74.0625 l -22 0.007812 c -4.433594 0 -8.042969 -3.492187 -8.042969 -7.925781 v -22 z m 0 0"/>
    </clipPath>
    <clipPath id="u">
        <path d="m 32 28 h 40 v 4 h -40 z m 0 0"/>
    </clipPath>
    <clipPath id="v">
        <path d="m 28 8 c -4.433594 0 -8 3.566406 -8 8 v 96 c 0 4.433594 3.566406 8 8 8 h 72 c 4.433594 0 8.046875 -3.589844 8.042969 -8.019531 v -74.0625 l -22 0.007812 c -4.433594 0 -8.042969 -3.492187 -8.042969 -7.925781 v -22 z m 0 0"/>
    </clipPath>
    <clipPath id="w">
        <path d="m 32 53 h 42 v 51 h -42 z m 0 0"/>
    </clipPath>
    <clipPath id="x">
        <path d="m 28 8 c -4.433594 0 -8 3.566406 -8 8 v 96 c 0 4.433594 3.566406 8 8 8 h 72 c 4.433594 0 8.046875 -3.589844 8.042969 -8.019531 v -74.0625 l -22 0.007812 c -4.433594 0 -8.042969 -3.492187 -8.042969 -7.925781 v -22 z m 0 0"/>
    </clipPath>
    <radialGradient id="y" cx="413.639404" cy="226.77327" gradientTransform="matrix(0.231318 0.400655 0.244759 -0.141312 -89.187302 -67.681122)" gradientUnits="userSpaceOnUse" r="192">
        <stop offset="0" stop-color="#50db81"/>
        <stop offset="1" stop-color="#8ff0a4" stop-opacity="0.003922"/>
    </radialGradient>
    <clipPath id="z">
        <path d="m 20 8 h 44 v 112 h -44 z m 0 0"/>
    </clipPath>
    <clipPath id="A">
        <path d="m 28 8 c -4.433594 0 -8 3.566406 -8 8 v 96 c 0 4.433594 3.566406 8 8 8 h 72 c 4.433594 0 8.046875 -3.589844 8.042969 -8.019531 v -74.0625 l -22 0.007812 c -4.433594 0 -8.042969 -3.492187 -8.042969 -7.925781 v -22 z m 0 0"/>
    </clipPath>
    <clipPath id="B">
        <path d="m 64 8 h 45 v 112 h -45 z m 0 0"/>
    </clipPath>
    <clipPath id="C">
        <path d="m 28 8 c -4.433594 0 -8 3.566406 -8 8 v 96 c 0 4.433594 3.566406 8 8 8 h 72 c 4.433594 0 8.046875 -3.589844 8.042969 -8.019531 v -74.0625 l -22 0.007812 c -4.433594 0 -8.042969 -3.492187 -8.042969 -7.925781 v -22 z m 0 0"/>
    </clipPath>
    <g clip-path="url(#a)">
        <g clip-path="url(#b)">
            <path d="m 28 8 h 50 l 30.042969 29.917969 v 74.058593 c 0 4.433594 -3.609375 8.023438 -8.042969 8.023438 h -72 c -4.433594 0 -8 -3.566406 -8 -8 v -96 c 0 -4.433594 3.566406 -8 8 -8 z m 0 0" fill="#f6f5f4"/>
        </g>
    </g>
    <g clip-path="url(#c)">
        <g clip-path="url(#d)">
            <path d="m 82 100 h 12 c 1.105469 0 2 0.894531 2 2 s -0.894531 2 -2 2 h -12 c -1.105469 0 -2 -0.894531 -2 -2 s 0.894531 -2 2 -2 z m 0 0" fill="#deddda"/>
        </g>
    </g>
    <g clip-path="url(#e)">
        <g clip-path="url(#f)">
            <path d="m 82 92 h 12 c 1.105469 0 2 0.894531 2 2 s -0.894531 2 -2 2 h -12 c -1.105469 0 -2 -0.894531 -2 -2 s 0.894531 -2 2 -2 z m 0 0" fill="#deddda"/>
        </g>
    </g>
    <g clip-path="url(#g)">
        <g clip-path="url(#h)">
            <path d="m 82 84 h 12 c 1.105469 0 2 0.894531 2 2 s -0.894531 2 -2 2 h -12 c -1.105469 0 -2 -0.894531 -2 -2 s 0.894531 -2 2 -2 z m 0 0" fill="#deddda"/>
        </g>
    </g>
    <g clip-path="url(#i)">
        <g clip-path="url(#j)">
            <path d="m 82 76 h 12 c 1.105469 0 2 0.894531 2 2 s -0.894531 2 -2 2 h -12 c -1.105469 0 -2 -0.894531 -2 -2 s 0.894531 -2 2 -2 z m 0 0" fill="#deddda"/>
        </g>
    </g>
    <g clip-path="url(#k)">
        <g clip-path="url(#l)">
            <path d="m 82 68 h 12 c 1.105469 0 2 0.894531 2 2 s -0.894531 2 -2 2 h -12 c -1.105469 0 -2 -0.894531 -2 -2 s 0.894531 -2 2 -2 z m 0 0" fill="#deddda"/>
        </g>
    </g>
    <g clip-path="url(#m)">
        <g clip-path="url(#n)">
            <path d="m 82 60 h 12 c 1.105469 0 2 0.894531 2 2 s -0.894531 2 -2 2 h -12 c -1.105469 0 -2 -0.894531 -2 -2 s 0.894531 -2 2 -2 z m 0 0" fill="#deddda"/>
        </g>
    </g>
    <g clip-path="url(#o)">
        <g clip-path="url(#p)">
            <path d="m 82 52 h 12 c 1.105469 0 2 0.894531 2 2 s -0.894531 2 -2 2 h -12 c -1.105469 0 -2 -0.894531 -2 -2 s 0.894531 -2 2 -2 z m 0 0" fill="#deddda"/>
        </g>
    </g>
    <g clip-path="url(#q)">
        <g clip-path="url(#r)">
            <path d="m 34 44 h 60 c 1.105469 0 2 0.894531 2 2 s -0.894531 2 -2 2 h -60 c -1.105469 0 -2 -0.894531 -2 -2 s 0.894531 -2 2 -2 z m 0 0" fill="#deddda"/>
        </g>
    </g>
    <g clip-path="url(#s)">
        <g clip-path="url(#t)">
            <path d="m 34 36 h 36 c 1.105469 0 2 0.59375 2 1.324219 v 1.351562 c 0 0.730469 -0.894531 1.324219 -2 1.324219 h -36 c -1.105469 0 -2 -0.59375 -2 -1.324219 v -1.351562 c 0 -0.730469 0.894531 -1.324219 2 -1.324219 z m 0 0" fill="#deddda"/>
        </g>
    </g>
    <g clip-path="url(#u)">
        <g clip-path="url(#v)">
            <path d="m 34 28 h 36 c 1.105469 0 2 0.59375 2 1.324219 v 1.351562 c 0 0.730469 -0.894531 1.324219 -2 1.324219 h -36 c -1.105469 0 -2 -0.59375 -2 -1.324219 v -1.351562 c 0 -0.730469 0.894531 -1.324219 2 -1.324219 z m 0 0" fill="#deddda"/>
        </g>
    </g>
    <g clip-path="url(#w)">
        <g clip-path="url(#x)">
            <path d="m 36 104 h 34 c 2.210938 0 4 -1.789062 4 -4 v -42.035156 c 0 -2.207032 -1.789062 -4 -4 -4 h -34 c -2.210938 0 -4 1.792968 -4 4 v 42.035156 c 0 2.210938 1.789062 4 4 4 z m 0 0" fill="url(#y)"/>
            <path d="m 36 104 h 34 c 2.210938 0 4 -1.789062 4 -4 v -42.035156 c 0 -2.207032 -1.789062 -4 -4 -4 h -34 c -2.210938 0 -4 1.792968 -4 4 v 42.035156 c 0 2.210938 1.789062 4 4 4 z m 0 0" fill="#deddda"/>
        </g>
    </g>
    <g clip-path="url(#z)">
        <g clip-path="url(#A)">
            <path d="m 64 8 l -48 112 v -112 z m 0 0" fill-opacity="0.035294"/>
        </g>
    </g>
    <g clip-path="url(#B)">
        <g clip-path="url(#C)">
            <path d="m 64 8 l 48 112 v -112 z m 0 0" fill="#ffffff" fill-opacity="0.454902"/>
        </g>
    </g>
    <path d="m 78 8 v 22 c 0 4.433594 3.609375 7.921875 8.042969 7.921875 l 22 -0.003906 z m 0 0" fill="#deddda"/>
</svg>

<svg width="128" height="128" viewBox="0 0 128 128" fill="none" xmlns="http://www.w3.org/2000/svg">
<mask id="mask0_1_2500" style="mask-type:luminance" maskUnits="userSpaceOnUse" x="20" y="8" width="89" height="112">
<path d="M20 8H109V120H20V8Z" fill="white"/>
</mask>
<g mask="url(#mask0_1_2500)">
<mask id="mask1_1_2500" style="mask-type:luminance" maskUnits="userSpaceOnUse" x="20" y="8" width="89" height="112">
<path d="M28 8C23.5664 8 20 11.5664 20 16V112C20 116.434 23.5664 120 28 120H100C104.434 120 108.047 116.41 108.043 111.98V37.918L86.043 37.9258C81.6094 37.9258 78 34.4336 78 30V8H28Z" fill="white"/>
</mask>
<g mask="url(#mask1_1_2500)">
<path d="M28 8H78L108.043 37.918V111.977C108.043 116.41 104.434 120 100 120H28C23.5664 120 20 116.434 20 112V16C20 11.5664 23.5664 8 28 8Z" fill="#F6F5F4"/>
</g>
</g>
<rect x="20" y="8" width="88" height="112" rx="8" fill="url(#paint0_linear_1_2500)"/>
<mask id="mask2_1_2500" style="mask-type:luminance" maskUnits="userSpaceOnUse" x="80" y="100" width="16" height="4">
<path d="M80 100H96V104H80V100Z" fill="white"/>
</mask>
<g mask="url(#mask2_1_2500)">
<mask id="mask3_1_2500" style="mask-type:luminance" maskUnits="userSpaceOnUse" x="20" y="8" width="89" height="112">
<path d="M28 8C23.5664 8 20 11.5664 20 16V112C20 116.434 23.5664 120 28 120H100C104.434 120 108.047 116.41 108.043 111.98V37.918L86.043 37.9258C81.6094 37.9258 78 34.4336 78 30V8H28Z" fill="white"/>
</mask>
<g mask="url(#mask3_1_2500)">
<path d="M82 100H94C95.1055 100 96 100.895 96 102C96 103.105 95.1055 104 94 104H82C80.8945 104 80 103.105 80 102C80 100.895 80.8945 100 82 100Z" fill="#DEDDDA"/>
</g>
</g>
<mask id="mask4_1_2500" style="mask-type:luminance" maskUnits="userSpaceOnUse" x="80" y="92" width="16" height="4">
<path d="M80 92H96V96H80V92Z" fill="white"/>
</mask>
<g mask="url(#mask4_1_2500)">
<mask id="mask5_1_2500" style="mask-type:luminance" maskUnits="userSpaceOnUse" x="20" y="8" width="89" height="112">
<path d="M28 8C23.5664 8 20 11.5664 20 16V112C20 116.434 23.5664 120 28 120H100C104.434 120 108.047 116.41 108.043 111.98V37.918L86.043 37.9258C81.6094 37.9258 78 34.4336 78 30V8H28Z" fill="white"/>
</mask>
<g mask="url(#mask5_1_2500)">
<path d="M82 92H94C95.1055 92 96 92.8945 96 94C96 95.1055 95.1055 96 94 96H82C80.8945 96 80 95.1055 80 94C80 92.8945 80.8945 92 82 92Z" fill="#DEDDDA"/>
</g>
</g>
<mask id="mask6_1_2500" style="mask-type:luminance" maskUnits="userSpaceOnUse" x="80" y="84" width="16" height="4">
<path d="M80 84H96V88H80V84Z" fill="white"/>
</mask>
<g mask="url(#mask6_1_2500)">
<mask id="mask7_1_2500" style="mask-type:luminance" maskUnits="userSpaceOnUse" x="20" y="8" width="89" height="112">
<path d="M28 8C23.5664 8 20 11.5664 20 16V112C20 116.434 23.5664 120 28 120H100C104.434 120 108.047 116.41 108.043 111.98V37.918L86.043 37.9258C81.6094 37.9258 78 34.4336 78 30V8H28Z" fill="white"/>
</mask>
<g mask="url(#mask7_1_2500)">
<path d="M82 84H94C95.1055 84 96 84.8945 96 86C96 87.1055 95.1055 88 94 88H82C80.8945 88 80 87.1055 80 86C80 84.8945 80.8945 84 82 84Z" fill="#DEDDDA"/>
</g>
</g>
<mask id="mask8_1_2500" style="mask-type:luminance" maskUnits="userSpaceOnUse" x="80" y="76" width="16" height="4">
<path d="M80 76H96V80H80V76Z" fill="white"/>
</mask>
<g mask="url(#mask8_1_2500)">
<mask id="mask9_1_2500" style="mask-type:luminance" maskUnits="userSpaceOnUse" x="20" y="8" width="89" height="112">
<path d="M28 8C23.5664 8 20 11.5664 20 16V112C20 116.434 23.5664 120 28 120H100C104.434 120 108.047 116.41 108.043 111.98V37.918L86.043 37.9258C81.6094 37.9258 78 34.4336 78 30V8H28Z" fill="white"/>
</mask>
<g mask="url(#mask9_1_2500)">
<path d="M82 76H94C95.1055 76 96 76.8945 96 78C96 79.1055 95.1055 80 94 80H82C80.8945 80 80 79.1055 80 78C80 76.8945 80.8945 76 82 76Z" fill="#DEDDDA"/>
</g>
</g>
<mask id="mask10_1_2500" style="mask-type:luminance" maskUnits="userSpaceOnUse" x="80" y="68" width="16" height="4">
<path d="M80 68H96V72H80V68Z" fill="white"/>
</mask>
<g mask="url(#mask10_1_2500)">
<mask id="mask11_1_2500" style="mask-type:luminance" maskUnits="userSpaceOnUse" x="20" y="8" width="89" height="112">
<path d="M28 8C23.5664 8 20 11.5664 20 16V112C20 116.434 23.5664 120 28 120H100C104.434 120 108.047 116.41 108.043 111.98V37.918L86.043 37.9258C81.6094 37.9258 78 34.4336 78 30V8H28Z" fill="white"/>
</mask>
<g mask="url(#mask11_1_2500)">
<path d="M82 68H94C95.1055 68 96 68.8945 96 70C96 71.1055 95.1055 72 94 72H82C80.8945 72 80 71.1055 80 70C80 68.8945 80.8945 68 82 68Z" fill="#DEDDDA"/>
</g>
</g>
<mask id="mask12_1_2500" style="mask-type:luminance" maskUnits="userSpaceOnUse" x="80" y="60" width="16" height="4">
<path d="M80 60H96V64H80V60Z" fill="white"/>
</mask>
<g mask="url(#mask12_1_2500)">
<mask id="mask13_1_2500" style="mask-type:luminance" maskUnits="userSpaceOnUse" x="20" y="8" width="89" height="112">
<path d="M28 8C23.5664 8 20 11.5664 20 16V112C20 116.434 23.5664 120 28 120H100C104.434 120 108.047 116.41 108.043 111.98V37.918L86.043 37.9258C81.6094 37.9258 78 34.4336 78 30V8H28Z" fill="white"/>
</mask>
<g mask="url(#mask13_1_2500)">
<path d="M82 60H94C95.1055 60 96 60.8945 96 62C96 63.1055 95.1055 64 94 64H82C80.8945 64 80 63.1055 80 62C80 60.8945 80.8945 60 82 60Z" fill="#DEDDDA"/>
</g>
</g>
<mask id="mask14_1_2500" style="mask-type:luminance" maskUnits="userSpaceOnUse" x="80" y="52" width="16" height="4">
<path d="M80 52H96V56H80V52Z" fill="white"/>
</mask>
<g mask="url(#mask14_1_2500)">
<mask id="mask15_1_2500" style="mask-type:luminance" maskUnits="userSpaceOnUse" x="20" y="8" width="89" height="112">
<path d="M28 8C23.5664 8 20 11.5664 20 16V112C20 116.434 23.5664 120 28 120H100C104.434 120 108.047 116.41 108.043 111.98V37.918L86.043 37.9258C81.6094 37.9258 78 34.4336 78 30V8H28Z" fill="white"/>
</mask>
<g mask="url(#mask15_1_2500)">
<path d="M82 52H94C95.1055 52 96 52.8945 96 54C96 55.1055 95.1055 56 94 56H82C80.8945 56 80 55.1055 80 54C80 52.8945 80.8945 52 82 52Z" fill="#DEDDDA"/>
</g>
</g>
<mask id="mask16_1_2500" style="mask-type:luminance" maskUnits="userSpaceOnUse" x="32" y="44" width="64" height="4">
<path d="M32 44H96V48H32V44Z" fill="white"/>
</mask>
<g mask="url(#mask16_1_2500)">
<mask id="mask17_1_2500" style="mask-type:luminance" maskUnits="userSpaceOnUse" x="20" y="8" width="89" height="112">
<path d="M28 8C23.5664 8 20 11.5664 20 16V112C20 116.434 23.5664 120 28 120H100C104.434 120 108.047 116.41 108.043 111.98V37.918L86.043 37.9258C81.6094 37.9258 78 34.4336 78 30V8H28Z" fill="white"/>
</mask>
<g mask="url(#mask17_1_2500)">
<path d="M34 44H94C95.1055 44 96 44.8945 96 46C96 47.1055 95.1055 48 94 48H34C32.8945 48 32 47.1055 32 46C32 44.8945 32.8945 44 34 44Z" fill="#DEDDDA"/>
</g>
</g>
<mask id="mask18_1_2500" style="mask-type:luminance" maskUnits="userSpaceOnUse" x="32" y="36" width="40" height="4">
<path d="M32 36H72V40H32V36Z" fill="white"/>
</mask>
<g mask="url(#mask18_1_2500)">
<mask id="mask19_1_2500" style="mask-type:luminance" maskUnits="userSpaceOnUse" x="20" y="8" width="89" height="112">
<path d="M28 8C23.5664 8 20 11.5664 20 16V112C20 116.434 23.5664 120 28 120H100C104.434 120 108.047 116.41 108.043 111.98V37.918L86.043 37.9258C81.6094 37.9258 78 34.4336 78 30V8H28Z" fill="white"/>
</mask>
<g mask="url(#mask19_1_2500)">
<path d="M34 36H70C71.1055 36 72 36.5937 72 37.3242V38.6758C72 39.4063 71.1055 40 70 40H34C32.8945 40 32 39.4063 32 38.6758V37.3242C32 36.5937 32.8945 36 34 36Z" fill="#DEDDDA"/>
</g>
</g>
<mask id="mask20_1_2500" style="mask-type:luminance" maskUnits="userSpaceOnUse" x="32" y="28" width="40" height="4">
<path d="M32 28H72V32H32V28Z" fill="white"/>
</mask>
<g mask="url(#mask20_1_2500)">
<mask id="mask21_1_2500" style="mask-type:luminance" maskUnits="userSpaceOnUse" x="20" y="8" width="89" height="112">
<path d="M28 8C23.5664 8 20 11.5664 20 16V112C20 116.434 23.5664 120 28 120H100C104.434 120 108.047 116.41 108.043 111.98V37.918L86.043 37.9258C81.6094 37.9258 78 34.4336 78 30V8H28Z" fill="white"/>
</mask>
<g mask="url(#mask21_1_2500)">
<path d="M34 28H70C71.1055 28 72 28.5937 72 29.3242V30.6758C72 31.4063 71.1055 32 70 32H34C32.8945 32 32 31.4063 32 30.6758V29.3242C32 28.5937 32.8945 28 34 28Z" fill="#DEDDDA"/>
</g>
</g>
<mask id="mask22_1_2500" style="mask-type:luminance" maskUnits="userSpaceOnUse" x="32" y="53" width="42" height="51">
<path d="M32 53H74V104H32V53Z" fill="white"/>
</mask>
<g mask="url(#mask22_1_2500)">
<mask id="mask23_1_2500" style="mask-type:luminance" maskUnits="userSpaceOnUse" x="20" y="8" width="89" height="112">
<path d="M28 8C23.5664 8 20 11.5664 20 16V112C20 116.434 23.5664 120 28 120H100C104.434 120 108.047 116.41 108.043 111.98V37.918L86.043 37.9258C81.6094 37.9258 78 34.4336 78 30V8H28Z" fill="white"/>
</mask>
<g mask="url(#mask23_1_2500)">
<path d="M36 104H70C72.2109 104 74 102.211 74 100V57.9648C74 55.7578 72.2109 53.9648 70 53.9648H36C33.7891 53.9648 32 55.7578 32 57.9648V100C32 102.211 33.7891 104 36 104Z" fill="url(#paint1_radial_1_2500)"/>
<path d="M36 104H70C72.2109 104 74 102.211 74 100V57.9648C74 55.7578 72.2109 53.9648 70 53.9648H36C33.7891 53.9648 32 55.7578 32 57.9648V100C32 102.211 33.7891 104 36 104Z" fill="#DEDDDA"/>
</g>
</g>
<g filter="url(#filter0_d_1_2500)">
<g clip-path="url(#paint2_angular_1_2500_clip_path)" data-figma-skip-parse="true"><g transform="matrix(0.0125 0.0175 -0.0175708 0.0125506 94.5 20.5)"><foreignObject x="-1193.06" y="-1193.06" width="2386.12" height="2386.12"><div xmlns="http://www.w3.org/1999/xhtml" style="background:conic-gradient(from 90deg,rgba(234, 234, 232, 1) 0deg,rgba(190, 190, 190, 1) 360deg);height:100%;width:100%;opacity:1"></div></foreignObject></g></g><path d="M77 8V30C77 34.4336 80.6094 37.9219 85.043 37.9219L107.043 37.918L77 8Z" data-figma-gradient-fill="{&#34;type&#34;:&#34;GRADIENT_ANGULAR&#34;,&#34;stops&#34;:[{&#34;color&#34;:{&#34;r&#34;:0.92067307233810425,&#34;g&#34;:0.91873663663864136,&#34;b&#34;:0.91292703151702881,&#34;a&#34;:1.0},&#34;position&#34;:0.0},{&#34;color&#34;:{&#34;r&#34;:0.74879807233810425,&#34;g&#34;:0.74879807233810425,&#34;b&#34;:0.74879807233810425,&#34;a&#34;:1.0},&#34;position&#34;:1.0}],&#34;stopsVar&#34;:[{&#34;color&#34;:{&#34;r&#34;:0.92067307233810425,&#34;g&#34;:0.91873663663864136,&#34;b&#34;:0.91292703151702881,&#34;a&#34;:1.0},&#34;position&#34;:0.0},{&#34;color&#34;:{&#34;r&#34;:0.74879807233810425,&#34;g&#34;:0.74879807233810425,&#34;b&#34;:0.74879807233810425,&#34;a&#34;:1.0},&#34;position&#34;:1.0}],&#34;transform&#34;:{&#34;m00&#34;:25.000005722045898,&#34;m01&#34;:-35.141643524169922,&#34;m02&#34;:99.570823669433594,&#34;m10&#34;:35.0,&#34;m11&#34;:25.101181030273438,&#34;m12&#34;:-9.5505905151367188},&#34;opacity&#34;:1.0,&#34;blendMode&#34;:&#34;NORMAL&#34;,&#34;visible&#34;:true}"/>
</g>
<defs>
<filter id="filter0_d_1_2500" x="62.7" y="1.7" width="54.643" height="54.5219" filterUnits="userSpaceOnUse" color-interpolation-filters="sRGB">
<feFlood flood-opacity="0" result="BackgroundImageFix"/>
<feColorMatrix in="SourceAlpha" type="matrix" values="0 0 0 0 0 0 0 0 0 0 0 0 0 0 0 0 0 0 127 0" result="hardAlpha"/>
<feOffset dx="-2" dy="6"/>
<feGaussianBlur stdDeviation="6.15"/>
<feComposite in2="hardAlpha" operator="out"/>
<feColorMatrix type="matrix" values="0 0 0 0 0.433894 0 0 0 0 0.433894 0 0 0 0 0.433894 0 0 0 0.46 0"/>
<feBlend mode="normal" in2="BackgroundImageFix" result="effect1_dropShadow_1_2500"/>
<feBlend mode="normal" in="SourceGraphic" in2="effect1_dropShadow_1_2500" result="shape"/>
</filter>
<clipPath id="paint2_angular_1_2500_clip_path"><path d="M77 8V30C77 34.4336 80.6094 37.9219 85.043 37.9219L107.043 37.918L77 8Z"/></clipPath><linearGradient id="paint0_linear_1_2500" x1="21.4831" y1="11" x2="107.187" y2="116.554" gradientUnits="userSpaceOnUse">
<stop stop-color="white" stop-opacity="0.545"/>
<stop offset="0.153846" stop-color="white"/>
<stop offset="0.302885" stop-color="white" stop-opacity="0.3175"/>
<stop offset="0.586538" stop-color="white" stop-opacity="0.09"/>
<stop offset="0.745192" stop-color="white"/>
<stop offset="0.860577" stop-color="white" stop-opacity="0"/>
</linearGradient>
<radialGradient id="paint1_radial_1_2500" cx="0" cy="0" r="1" gradientUnits="userSpaceOnUse" gradientTransform="translate(61.9997 65.9998) rotate(60) scale(88.8262 54.2637)">
<stop stop-color="#50DB81"/>
<stop offset="1" stop-color="#8FF0A4" stop-opacity="0.01"/>
</radialGradient>
</defs>
</svg>
